img/logotypes/zeplin.svg

<svg width="64" height="64" viewBox="0 0 64 64" fill="none" xmlns="http://www.w3.org/2000/svg">
<g opacity="0.78">
<path fill-rule="evenodd" clip-rule="evenodd" d="M12.6315 40.3366L9.70191 41.3886L9.54462 49.9551L19.6858 46.3136C16.2075 45.1652 13.6674 43.1445 12.6315 40.3366Z" fill="#FDBD39"/>
<path fill-rule="evenodd" clip-rule="evenodd" d="M14.1646 31.2759L4 34.9259L9.70192 41.3885L12.6315 40.3366C11.5986 37.5368 12.2356 34.372 14.1646 31.2759Z" fill="#F69833"/>
<path fill-rule="evenodd" clip-rule="evenodd" d="M31.2698 18.9149C18.3262 23.5627 9.98148 33.1535 12.6315 40.3366L59.5047 23.5053C56.8546 16.3222 44.2135 14.267 31.2698 18.9149Z" fill="#FECF33"/>
<path fill-rule="evenodd" clip-rule="evenodd" d="M40.8663 44.927C53.8099 40.2791 62.1703 30.7308 59.5046 23.5052L12.6315 40.3365C15.2971 47.5622 27.9226 49.5748 40.8663 44.927Z" fill="#EE6723"/>
<path fill-rule="evenodd" clip-rule="evenodd" d="M59.5046 23.5052L12.6315 40.3365C13.5493 42.8244 17.0494 44.0501 21.9604 44.0501C26.7483 44.0501 32.8772 42.886 39.2668 40.5916C52.2106 35.9437 61.3173 28.4186 59.5046 23.5052Z" fill="#F69833"/>
<path fill-rule="evenodd" clip-rule="evenodd" d="M50.1756 19.7916C45.3877 19.7916 39.2589 20.9557 32.8692 23.2501C19.9255 27.898 10.8188 35.4231 12.6315 40.3365L59.5046 23.5052C58.5868 21.0173 55.0867 19.7916 50.1756 19.7916Z" fill="#FDBD39"/>
<path fill-rule="evenodd" clip-rule="evenodd" d="M47.587 50.4088H47.5867C46.2076 50.4088 44.173 49.1843 41.5394 46.7694C38.4237 43.9124 34.8547 39.7278 31.4896 34.9866C28.1247 30.2455 25.3596 25.5055 23.7039 21.6397C21.9 17.427 21.6428 14.8367 22.9394 13.9408C23.2237 13.7446 23.5665 13.6452 23.958 13.6452C25.0127 13.6452 27.0679 14.4171 30.8682 18.0945L30.9513 18.1749L30.94 18.2892C30.9141 18.5534 30.8901 18.8199 30.8688 19.0816L30.8264 19.6011L30.4536 19.2318C26.3589 15.177 24.5564 14.7392 23.9714 14.7392C23.8046 14.7392 23.6718 14.7726 23.5765 14.8384C23.0141 15.2268 22.9779 17.1294 24.7268 21.2132C26.353 25.0101 29.0778 29.6784 32.3993 34.3581C35.7209 39.0382 39.2354 43.161 42.2954 45.9669C45.5951 48.9925 47.0821 49.3192 47.5683 49.3192C47.7361 49.3192 47.8725 49.2838 47.9737 49.2138C48.567 48.8041 48.5677 46.7659 46.6173 42.3704L46.5278 42.1686L46.7238 42.0631C46.9198 41.9576 47.1094 41.8537 47.2872 41.7544L47.522 41.6232L47.6303 41.867C49.0132 44.9816 50.3059 48.9401 48.6108 50.1114C48.325 50.3087 47.9806 50.4088 47.587 50.4088ZM47.5867 49.9283H47.5871L47.5868 50.1685L47.5867 49.9283Z" fill="#EE6723"/>
<path fill-rule="evenodd" clip-rule="evenodd" d="M41.1805 44.7959L41.1608 45.0353C40.8335 49.0154 39.9719 53.8003 37.7254 53.994C37.6802 53.998 37.6333 54 37.5865 54C36.0603 54 34.6165 51.8507 33.2951 47.6117C32.0449 43.6013 31.0747 38.2167 30.5634 32.4499C30.052 26.6843 30.0596 21.2154 30.5849 17.0507C31.1575 12.5125 32.2476 10.1424 33.8247 10.0064C33.8713 10.0022 33.9197 10 33.9674 10C35.0745 10 36.7431 11.2322 38.4512 16.9717L37.3359 17.1833C36.7656 15.2653 36.144 13.7054 35.527 12.6335C34.9562 11.642 34.4013 11.096 33.9642 11.096C33.9499 11.096 33.9354 11.0966 33.9212 11.0978C33.2376 11.1568 32.242 12.7867 31.687 17.186C31.171 21.276 31.1648 26.663 31.6695 32.3546C32.1744 38.047 33.1287 43.3511 34.3565 47.2896C34.9064 49.0536 35.5095 50.5073 36.1006 51.4938C36.6458 52.4035 37.1733 52.9045 37.5861 52.9045C37.6003 52.9045 37.6145 52.9038 37.6286 52.9026C38.2826 52.8463 39.5153 51.1502 40.0341 45.1827L41.1805 44.7959Z" fill="#EE6723"/>
</g>
</svg>

<svg xmlns="http://www.w3.org/2000/svg" width="64" height="64" fill="none"><g fill-rule="evenodd" clip-rule="evenodd" opacity=".78"><path fill="#FDBD39" d="M12.63 40.34 9.7 41.39l-.16 8.57L19.7 46.3c-3.48-1.14-6.02-3.17-7.06-5.97Z"/><path fill="#F69833" d="M14.16 31.28 4 34.93l5.7 6.46 2.93-1.05c-1.03-2.8-.4-5.97 1.53-9.06Z"/><path fill="#FECF33" d="M31.27 18.91C18.33 23.56 9.98 33.15 12.63 40.34L59.5 23.5c-2.65-7.19-15.29-9.24-28.23-4.6Z"/><path fill="#EE6723" d="M40.87 44.93c12.94-4.65 21.3-14.2 18.63-21.42L12.63 40.34c2.67 7.22 15.3 9.23 28.24 4.59Z"/><path fill="#F69833" d="M59.5 23.5 12.63 40.35c.92 2.48 4.42 3.71 9.33 3.71 4.79 0 10.92-1.16 17.3-3.46 12.95-4.65 22.06-12.17 20.24-17.08Z"/><path fill="#FDBD39" d="M50.18 19.8c-4.8 0-10.92 1.16-17.31 3.45-12.94 4.65-22.05 12.17-20.24 17.09L59.5 23.5c-.91-2.5-4.41-3.72-9.32-3.72Z"/><path fill="#EE6723" d="M47.59 50.4c-1.38 0-3.42-1.22-6.05-3.63a77.13 77.13 0 0 1-10.05-11.78 76.6 76.6 0 0 1-7.79-13.35c-1.8-4.21-2.06-6.8-.76-7.7.28-.2.63-.3 1.02-.3 1.05 0 3.1.78 6.9 4.45l.1.08-.02.12-.07.8-.04.51-.38-.37c-4.1-4.05-5.9-4.5-6.48-4.5-.17 0-.3.04-.4.1-.56.4-.6 2.3 1.16 6.38a75.48 75.48 0 0 0 7.67 13.15 76 76 0 0 0 9.9 11.6c3.3 3.03 4.78 3.36 5.27 3.36a.7.7 0 0 0 .4-.1c.6-.42.6-2.45-1.35-6.85l-.1-.2.2-.1.57-.32.23-.13.11.25c1.38 3.11 2.68 7.07.98 8.24-.28.2-.63.3-1.02.3Zm0-.47v.24-.24Z"/><path fill="#EE6723" d="m41.18 44.8-.02.24c-.33 3.98-1.19 8.76-3.43 8.95l-.14.01c-1.53 0-2.97-2.15-4.3-6.39a75.9 75.9 0 0 1-2.73-15.16c-.5-5.77-.5-11.23.02-15.4.58-4.54 1.67-6.9 3.24-7.04l.15-.01c1.1 0 2.77 1.23 4.48 6.97l-1.11.21a22.2 22.2 0 0 0-1.81-4.55c-.57-.99-1.13-1.53-1.57-1.53h-.04c-.68.06-1.68 1.69-2.23 6.09a74.73 74.73 0 0 0-.02 15.16c.5 5.7 1.46 11 2.69 14.94a20.34 20.34 0 0 0 1.74 4.2c.55.91 1.07 1.41 1.49 1.41a.5.5 0 0 0 .04 0c.65-.05 1.89-1.75 2.4-7.72l1.15-.38Z"/></g></svg>
